icons/flat/link.svg

<svg xmlns="http://www.w3.org/2000/svg" height="12" width="12" xmlns:v="https://vecta.io/nano"><path d="M4 7.5l7-5" fill="#1a1a1a"/><path d="M5 2.5v-1a.5.5 45 0 0-.5-.5h-3A1.5 1.5 135 0 0 0 2.5v8A1.5 1.5 45 0 0 1.5 12h8a1.5 1.5 135 0 0 1.5-1.5v-3a.5.5 45 0 0-.5-.5h-1a.5.5 135 0 0-.5.5V10H2V3h2.5a.5.5 135 0 0 .5-.5zm-.5 5l6-6"/><path d="M6 .5v1a.5.5 45 0 0 .5.5h2.086l-4.44 4.44a.5.5 90 0 0 0 .707l.707.707a.5.5 0 0 0 .707 0L10 3.414V5.5a.5.5 45 0 0 .5.5h1a.5.5 135 0 0 .5-.5V1a1 1 45 0 0-1-1H6.5a.5.5 135 0 0-.5.5z"/></svg>

<?xml version="1.0" encoding="UTF-8" standalone="no"?>
<svg
   xmlns:dc="http://purl.org/dc/elements/1.1/"
   xmlns:cc="http://creativecommons.org/ns#"
   xmlns:rdf="http://www.w3.org/1999/02/22-rdf-syntax-ns#"
   xmlns:svg="http://www.w3.org/2000/svg"
   xmlns="http://www.w3.org/2000/svg"
   xmlns:sodipodi="http://sodipodi.sourceforge.net/DTD/sodipodi-0.dtd"
   xmlns:inkscape="http://www.inkscape.org/namespaces/inkscape"
   inkscape:version="1.0beta1 (fe3e306, 2019-09-17)"
   sodipodi:docname="link2.svg"
   id="svg23"
   viewBox="0 0 12 12"
   version="1.1"
   height="12"
   width="12">
  <sodipodi:namedview
     inkscape:snap-midpoints="true"
     inkscape:snap-smooth-nodes="true"
     inkscape:object-paths="true"
     inkscape:snap-intersection-paths="true"
     viewbox-width="131.47"
     inkscape:document-rotation="0"
     inkscape:snap-center="true"
     inkscape:snap-object-midpoints="true"
     inkscape:snap-bbox-midpoints="true"
     inkscape:snap-bbox-edge-midpoints="true"
     inkscape:bbox-nodes="true"
     inkscape:bbox-paths="true"
     inkscape:snap-bbox="true"
     inkscape:current-layer="svg23"
     inkscape:window-maximized="1"
     inkscape:window-y="-8"
     inkscape:window-x="-8"
     inkscape:cy="4.8945634"
     inkscape:cx="7.1477697"
     inkscape:zoom="45.254834"
     showguides="false"
     showgrid="true"
     id="namedview25"
     inkscape:window-height="1017"
     inkscape:window-width="1920"
     inkscape:pageshadow="2"
     inkscape:pageopacity="0"
     guidetolerance="10"
     gridtolerance="10"
     objecttolerance="10"
     borderopacity="1"
     bordercolor="#666666"
     pagecolor="#ffffff">
    <inkscape:grid
       spacingy="0.5"
       spacingx="0.5"
       empopacity="0.3372549"
       empcolor="#3f3fff"
       opacity="0.10588235"
       color="#3f3fff"
       empspacing="2"
       snapvisiblegridlinesonly="true"
       dotted="false"
       id="grid832"
       type="xygrid" />
  </sodipodi:namedview>
  <defs
     id="defs7">
    <inkscape:path-effect
       hide_knots="false"
       only_selected="true"
       apply_with_radius="true"
       apply_no_radius="true"
       use_knot_distance="false"
       flexible="false"
       chamfer_steps="1"
       radius="1.5"
       mode="F"
       method="auto"
       unit="px"
       satellites_param="F,0,0,1,0,0.5,0,1 @ F,0,0,1,0,0.5,0,1 @ F,0,1,1,0,1.5,0,1 @ F,0,1,1,0,1.5,0,1 @ F,0,1,1,0,1.5,0,1 @ F,0,0,1,0,0.5,0,1 @ F,0,0,1,0,0.5,0,1 @ F,0,0,1,0,0,0,1 @ F,0,0,1,0,0,0,1 @ F,0,0,1,0,0,0,1"
       is_visible="true"
       id="path-effect972"
       effect="fillet_chamfer" />
    <inkscape:path-effect
       hide_knots="false"
       only_selected="true"
       apply_with_radius="true"
       apply_no_radius="true"
       use_knot_distance="false"
       flexible="false"
       chamfer_steps="1"
       radius="0"
       mode="F"
       method="auto"
       unit="px"
       satellites_param="F,0,0,1,0,0.5,0,1 @ F,0,0,1,0,0.5,0,1 @ F,0,0,1,0,0,0,1 @ F,0,0,1,0,0.49999999,0,1 @ F,0,0,1,0,0.49999999,0,1 @ F,0,0,1,0,0,0,1 @ F,0,0,1,0,0.5,0,1 @ F,0,0,1,0,0.5,0,1 @ F,0,1,1,0,1,0,1"
       is_visible="true"
       id="path-effect970"
       effect="fillet_chamfer" />
    <inkscape:path-effect
       hide_knots="false"
       only_selected="true"
       apply_with_radius="true"
       apply_no_radius="true"
       use_knot_distance="false"
       flexible="false"
       chamfer_steps="1"
       radius="1"
       mode="F"
       method="auto"
       unit="px"
       satellites_param="F,0,0,1,0,0.5,0,1 @ F,0,0,1,0,0.5,0,1 @ F,0,0,1,0,0,0,1 @ F,0,0,1,0,0.5,0,1 @ F,0,0,1,0,0.5,0,1 @ F,0,1,1,0,1,0,1"
       is_visible="true"
       id="path-effect905"
       effect="fillet_chamfer" />
    <inkscape:path-effect
       hide_knots="false"
       only_selected="false"
       apply_with_radius="true"
       apply_no_radius="true"
       use_knot_distance="false"
       flexible="false"
       chamfer_steps="1"
       radius="0.5"
       mode="F"
       method="auto"
       unit="px"
       satellites_param="F,0,0,1,0,0.4998867,0,1 @ F,0,0,1,0,0.50011341,0,1 @ F,0,0,1,0,0.49988663,0,1 @ F,0,0,1,0,0.50011332,0,1"
       is_visible="true"
       id="path-effect890"
       effect="fillet_chamfer" />
    <inkscape:path-effect
       hide_knots="false"
       only_selected="true"
       apply_with_radius="true"
       apply_no_radius="true"
       use_knot_distance="false"
       flexible="false"
       chamfer_steps="1"
       radius="0.5"
       mode="F"
       method="auto"
       unit="px"
       satellites_param="F,0,1,1,0,0.5,0,1 @ F,0,1,1,0,0.5,0,1 @ F,0,1,1,0,0.5,0,1 @ F,0,1,1,0,0.5,0,1 @ F,0,1,1,0,0.5,0,1 @ F,0,0,1,0,0,0,1 @ F,0,0,1,0,0,0,1 @ F,0,0,1,0,0,0,1 @ F,0,1,1,0,0.5,0,1 @ F,0,1,1,0,0.5,0,1"
       is_visible="true"
       id="path-effect888"
       effect="fillet_chamfer" />
    <inkscape:path-effect
       hide_knots="false"
       only_selected="true"
       apply_with_radius="true"
       apply_no_radius="true"
       use_knot_distance="false"
       flexible="false"
       chamfer_steps="1"
       radius="1"
       mode="F"
       method="auto"
       unit="px"
       satellites_param="F,0,1,1,0,1,0,1 @ F,0,0,1,0,0,0,1 @ F,0,0,1,0,0,0,1 @ F,0,0,1,0,0,0,1 @ F,0,0,1,0,0,0,1 @ F,0,1,1,0,1,0,1 @ F,0,0,1,0,0,0,1 @ F,0,0,1,0,0,0,1"
       is_visible="true"
       id="path-effect878"
       effect="fillet_chamfer" />
    <inkscape:path-effect
       hide_knots="false"
       only_selected="false"
       apply_with_radius="true"
       apply_no_radius="true"
       use_knot_distance="false"
       flexible="false"
       chamfer_steps="1"
       radius="1"
       mode="F"
       method="auto"
       unit="px"
       satellites_param="F,0,0,1,0,0.61803399,0,1 @ F,0,0,1,0,1.618034,0,1 @ F,0,0,1,0,0.61803394,0,1 @ F,0,0,1,0,1.6180341,0,1"
       is_visible="true"
       id="path-effect853"
       effect="fillet_chamfer" />
    <inkscape:path-effect
       only_selected="false"
       apply_with_weight="true"
       apply_no_weight="true"
       helper_size="0"
       steps="2"
       weight="33.333333"
       is_visible="true"
       id="path-effect1255"
       effect="bspline" />
    <radialGradient
       fy="773.61652"
       fx="-13166.831"
       gradientUnits="userSpaceOnUse"
       gradientTransform="matrix(0.5378275,-2.4793726e-7,-1.817799e-6,0.53782475,7149.2197,-348.33764)"
       r="94.455002"
       cy="773.61652"
       cx="-13166.831"
       id="radialGradient3016">
      <stop
         id="stop2"
         offset="0"
         stop-color="#23ff23" />
      <stop
         id="stop4"
         offset="1"
         stop-color="#00bf00" />
    </radialGradient>
    <inkscape:path-effect
       effect="fillet_chamfer"
       id="path-effect853-0"
       is_visible="true"
       satellites_param="F,0,0,1,0,0.61803399,0,1 @ F,0,0,1,0,1.618034,0,1 @ F,0,0,1,0,0.61803394,0,1 @ F,0,0,1,0,1.6180341,0,1"
       unit="px"
       method="auto"
       mode="F"
       radius="1"
       chamfer_steps="1"
       flexible="false"
       use_knot_distance="false"
       apply_no_radius="true"
       apply_with_radius="true"
       only_selected="false"
       hide_knots="false" />
  </defs>
  <metadata
     id="metadata9">
    <rdf:RDF>
      <cc:Work
         rdf:about="">
        <dc:format>image/svg+xml</dc:format>
        <dc:type
           rdf:resource="http://purl.org/dc/dcmitype/StillImage" />
        <dc:title></dc:title>
      </cc:Work>
    </rdf:RDF>
  </metadata>
  <g
     style="opacity:1"
     id="g882">
    <path
       id="path884"
       d="m 4,7.5 7,-5"
       style="color:#000000;font-style:normal;font-variant:normal;font-weight:normal;font-stretch:normal;font-size:medium;line-height:normal;font-family:sans-serif;font-variant-ligatures:normal;font-variant-position:normal;font-variant-caps:normal;font-variant-numeric:normal;font-variant-alternates:normal;font-variant-east-asian:normal;font-feature-settings:normal;font-variation-settings:normal;text-indent:0;text-align:start;text-decoration:none;text-decoration-line:none;text-decoration-style:solid;text-decoration-color:#000000;letter-spacing:normal;word-spacing:normal;text-transform:none;writing-mode:lr-tb;direction:ltr;text-orientation:mixed;dominant-baseline:auto;baseline-shift:baseline;text-anchor:start;white-space:normal;shape-padding:0;shape-margin:0;inline-size:0;clip-rule:nonzero;display:inline;overflow:visible;visibility:visible;isolation:auto;mix-blend-mode:normal;color-interpolation:sRGB;color-interpolation-filters:linearRGB;solid-color:#000000;solid-opacity:1;vector-effect:none;fill:#1a1a1a;fill-opacity:1;fill-rule:nonzero;stroke:none;stroke-width:2;stroke-linecap:butt;stroke-linejoin:miter;stroke-miterlimit:4;stroke-dasharray:none;stroke-dashoffset:0;stroke-opacity:1.0;filter-blend-mode:normal;filter-gaussianBlur-deviation:0;color-rendering:auto;image-rendering:auto;shape-rendering:auto;text-rendering:auto;enable-background:accumulate;stop-color:#000000;stop-opacity:1;" />
  </g>
  <path
     inkscape:original-d="M 5,3 V 1 H 0 V 12 H 11 V 7 H 9 v 3 H 2 V 3 Z"
     inkscape:path-effect="#path-effect972"
     inkscape:connector-curvature="0"
     id="path938"
     d="m 5,2.5 v -1 A 0.5,0.5 45 0 0 4.5,1 h -3 A 1.5,1.5 135 0 0 0,2.5 v 8 A 1.5,1.5 45 0 0 1.5,12 h 8 A 1.5,1.5 135 0 0 11,10.5 v -3 A 0.5,0.5 45 0 0 10.5,7 h -1 A 0.5,0.5 135 0 0 9,7.5 V 10 H 2 V 3 H 4.5 A 0.5,0.5 135 0 0 5,2.5 Z"
     style="fill:#000000;fill-opacity:1;stroke:none;stroke-width:1px;stroke-linecap:butt;stroke-linejoin:miter;stroke-opacity:1" />
  <g
     style="opacity:1;fill:#000000"
     id="g961">
    <path
       id="path963"
       d="m 4.5,7.5 6,-6"
       style="color:#000000;font-style:normal;font-variant:normal;font-weight:normal;font-stretch:normal;font-size:medium;line-height:normal;font-family:sans-serif;font-variant-ligatures:normal;font-variant-position:normal;font-variant-caps:normal;font-variant-numeric:normal;font-variant-alternates:normal;font-variant-east-asian:normal;font-feature-settings:normal;font-variation-settings:normal;text-indent:0;text-align:start;text-decoration:none;text-decoration-line:none;text-decoration-style:solid;text-decoration-color:#000000;letter-spacing:normal;word-spacing:normal;text-transform:none;writing-mode:lr-tb;direction:ltr;text-orientation:mixed;dominant-baseline:auto;baseline-shift:baseline;text-anchor:start;white-space:normal;shape-padding:0;shape-margin:0;inline-size:0;clip-rule:nonzero;display:inline;overflow:visible;visibility:visible;isolation:auto;mix-blend-mode:normal;color-interpolation:sRGB;color-interpolation-filters:linearRGB;solid-color:#000000;solid-opacity:1;vector-effect:none;fill:#000000;fill-opacity:1;fill-rule:nonzero;stroke:none;stroke-width:2;stroke-linecap:butt;stroke-linejoin:miter;stroke-miterlimit:4;stroke-dasharray:none;stroke-dashoffset:0;stroke-opacity:1;filter-blend-mode:normal;filter-gaussianBlur-deviation:0;color-rendering:auto;image-rendering:auto;shape-rendering:auto;text-rendering:auto;enable-background:accumulate;stop-color:#000000;stop-opacity:1" />
    <path
       inkscape:original-d="M 6 0 L 6 2 L 8.5859375 2 L 3.7929688 6.7929688 L 5.2070312 8.2070312 L 10 3.4140625 L 10 6 L 12 6 L 12 0 L 6 0 z "
       inkscape:path-effect="#path-effect970"
       d="m 6,0.5 v 1 A 0.5,0.5 45 0 0 6.5,2 H 8.5859375 L 4.1465222,6.4394154 a 0.5,0.5 90 0 0 0,0.7071068 l 0.7069556,0.7069556 a 0.5,0.5 2.9885323e-7 0 0 0.7071068,0 L 10,3.4140625 V 5.5 A 0.5,0.5 45 0 0 10.5,6 h 1 A 0.5,0.5 135 0 0 12,5.5 V 1 A 1,1 45 0 0 11,0 H 6.5 A 0.5,0.5 135 0 0 6,0.5 Z"
       style="color:#000000;font-style:normal;font-variant:normal;font-weight:normal;font-stretch:normal;font-size:medium;line-height:normal;font-family:sans-serif;font-variant-ligatures:normal;font-variant-position:normal;font-variant-caps:normal;font-variant-numeric:normal;font-variant-alternates:normal;font-variant-east-asian:normal;font-feature-settings:normal;font-variation-settings:normal;text-indent:0;text-align:start;text-decoration:none;text-decoration-line:none;text-decoration-style:solid;text-decoration-color:#000000;letter-spacing:normal;word-spacing:normal;text-transform:none;writing-mode:lr-tb;direction:ltr;text-orientation:mixed;dominant-baseline:auto;baseline-shift:baseline;text-anchor:start;white-space:normal;shape-padding:0;shape-margin:0;inline-size:0;clip-rule:nonzero;display:inline;overflow:visible;visibility:visible;isolation:auto;mix-blend-mode:normal;color-interpolation:sRGB;color-interpolation-filters:linearRGB;solid-color:#000000;solid-opacity:1;vector-effect:none;fill:#000000;fill-opacity:1;fill-rule:nonzero;stroke:none;stroke-width:2;stroke-linecap:butt;stroke-linejoin:miter;stroke-miterlimit:4;stroke-dasharray:none;stroke-dashoffset:0;stroke-opacity:1;filter-blend-mode:normal;filter-gaussianBlur-deviation:0;color-rendering:auto;image-rendering:auto;shape-rendering:auto;text-rendering:auto;enable-background:accumulate;stop-color:#000000;stop-opacity:1"
       id="path965" />
  </g>
</svg>
